X: 32339
T: Pinch Of Snuff, The
R: reel
M: 4/4
K: Dmajor
~F2 DF EFDF|~F2 DF EFGE|~F2 DF EFDF|GABG EFGE:|
DFAF BF AF|DFAF EA,CE|DFAF BFAF|1 G2 BG EFGE:|2 G2 BG EFGA||
~f2 fe dcdB|ABAF DFAF|(3EFG AB =cBcA|~G2 E=C G,CEA:|
~f2 df efdf|~f2 df efge|~f2 df efdf|gabg efge:|
dfaf bfaf|dfaf eAce|dfaf bfaf|gabg efge:|
fgfe dedB|ABAF DFAF|(3EFG AB =cBcA|~G2 E=C G,CE A:|

